icon/lg/apache.svg

<?xml version="1.0" encoding="UTF-8"?>
<svg viewBox="0 0 256 512" version="1.1" xmlns="http://www.w3.org/2000/svg" xmlns:xlink="http://www.w3.org/1999/xlink" preserveAspectRatio="xMidYMid" height="1em" width="1em">
  <defs>
    <linearGradient x1="16.3628891%" y1="63.9052008%" x2="159.989811%" y2="20.2134672%" id="linearGradient-1">
      <stop stop-color="#F69923" offset="0%"/>
      <stop stop-color="#F79A23" offset="31.23%"/>
      <stop stop-color="#E97826" offset="83.83%"/>
    </linearGradient>
    <linearGradient x1="-217.650978%" y1="394.671992%" x2="74.7430764%" y2="13.846058%" id="linearGradient-2">
      <stop stop-color="#9E2064" offset="32.33%"/>
      <stop stop-color="#C92037" offset="63.02%"/>
      <stop stop-color="#CD2335" offset="75.14%"/>
      <stop stop-color="#E97826" offset="100%"/>
    </linearGradient>
    <linearGradient x1="-80.0440054%" y1="170.418469%" x2="146.240033%" y2="-44.2993346%" id="linearGradient-3">
      <stop stop-color="#9E2064" offset="32.33%"/>
      <stop stop-color="#C92037" offset="63.02%"/>
      <stop stop-color="#CD2335" offset="75.14%"/>
      <stop stop-color="#E97826" offset="100%"/>
    </linearGradient>
    <linearGradient x1="-18.3158042%" y1="77.3603602%" x2="165.002%" y2="-41.416466%" id="linearGradient-4">
      <stop stop-color="#282662" offset="0%"/>
      <stop stop-color="#662E8D" offset="9.548389%"/>
      <stop stop-color="#9F2064" offset="78.82%"/>
      <stop stop-color="#CD2032" offset="94.87%"/>
    </linearGradient>
    <linearGradient x1="-129.782775%" y1="463.714866%" x2="66.4555408%" y2="17.1896681%" id="linearGradient-5">
      <stop stop-color="#9E2064" offset="32.33%"/>
      <stop stop-color="#C92037" offset="63.02%"/>
      <stop stop-color="#CD2335" offset="75.14%"/>
      <stop stop-color="#E97826" offset="100%"/>
    </linearGradient>
    <linearGradient x1="-34.8804169%" y1="187.706139%" x2="110.598662%" y2="-51.1003524%" id="linearGradient-6">
      <stop stop-color="#9E2064" offset="32.33%"/>
      <stop stop-color="#C92037" offset="63.02%"/>
      <stop stop-color="#CD2335" offset="75.14%"/>
      <stop stop-color="#E97826" offset="100%"/>
    </linearGradient>
    <linearGradient x1="-20.6189333%" y1="192.563688%" x2="125.259839%" y2="-136.90643%" id="linearGradient-7">
      <stop stop-color="#282662" offset="0%"/>
      <stop stop-color="#662E8D" offset="9.548389%"/>
      <stop stop-color="#9F2064" offset="78.82%"/>
      <stop stop-color="#CD2032" offset="94.87%"/>
    </linearGradient>
  </defs>
  <g>
    <path d="M218.048249,2.88871595 C210.079377,7.57042802 196.731518,21.0178988 180.793774,40.4420233 L180.793774,41.6373541 L194.7393,67.4365759 L195.436576,67.9346304 C205.696498,53.2918288 216.056031,40.0435798 226.614786,28.7875486 C227.411673,27.8910506 227.810117,27.492607 227.810117,27.492607 C227.411673,27.8910506 227.01323,28.3891051 226.614786,28.7875486 C223.228016,32.5727626 212.868482,44.52607 197.329183,68.4326848 L199.122179,68.8311284 C199.122179,68.8311284 235.480156,65.2451362 253.011673,62.2568093 L254.007782,61.3603113 C259.585992,30.0824903 248.529183,15.7385214 248.529183,15.7385214 C248.529183,15.7385214 234.583658,-6.77354086 218.048249,2.88871595 Z" fill="url(#linearGradient-1)"/>
    <path d="M152.404669,139.15642 C156.88716,130.888716 161.36965,122.720623 165.85214,114.851362 C170.533852,106.683268 175.315175,98.7143969 180.196109,91.044358 C180.494942,90.6459144 180.793774,90.1478599 180.992996,89.6498054 C185.774319,82.0793774 190.555642,74.907393 195.436576,67.9346304 L180.793774,40.3424125 C179.698054,41.6373541 178.602335,43.0319066 177.506615,44.4264591 C173.322957,49.7058366 168.940078,55.2840467 164.457588,61.2607004 C159.377432,68.0342412 154.197665,75.2062257 148.918288,82.7766537 C144.037354,89.7494163 139.056809,97.1206226 134.175875,104.59144 C129.992218,111.066148 125.708949,117.640467 121.525292,124.513619 C121.32607,124.812451 121.226459,125.011673 121.027237,125.310506 L121.027237,126.406226 L139.256031,162.564981 L140.052918,162.863813 C144.136965,154.894942 148.221012,146.92607 152.404669,139.15642 Z" fill="url(#linearGradient-2)"/>
    <path d="M73.014786,316.164981 C76.3019455,307.598444 79.7883268,298.932296 83.2747082,290.166537 C86.6614786,281.799222 90.048249,273.332296 93.6342412,264.86537 C97.1206226,256.398444 100.806226,247.931518 104.491829,239.364981 C108.277043,230.698833 112.062257,222.032685 115.947082,213.466148 C119.831907,204.999222 123.716732,196.532296 127.701167,188.164981 C129.09572,185.176654 130.589883,182.088716 132.084047,179.100389 C134.574319,173.920623 137.164202,168.740856 139.654475,163.6607 C139.754086,163.361868 139.953307,163.162646 140.052918,162.863813 L121.027237,125.310506 C120.728405,125.80856 120.429572,126.306615 120.130739,126.804669 C115.74786,134.076265 111.26537,141.447471 106.982101,149.017899 C102.599222,156.687938 98.3159533,164.457588 94.1322957,172.326848 C90.5463035,179.000778 87.1595331,185.674708 83.7727626,192.448249 C83.0754864,193.842802 82.477821,195.137743 81.7805447,196.532296 C77.5968872,205.098833 73.911284,213.266926 70.5245136,221.235798 C66.7392996,230.200778 63.3525292,238.767315 60.3642023,246.935409 C58.3719844,252.314397 56.6785992,257.394553 54.985214,262.375097 C53.6902724,266.558755 52.3953307,270.842023 51.2,275.025681 C48.311284,284.98677 45.9206226,294.848249 43.9284047,304.809339 L44.2272374,306.004669 L62.4560311,342.263035 L63.0536965,342.561868 C65.5439689,335.788327 68.1338521,329.014786 70.8233463,322.042023 C71.5206226,320.049805 72.3175097,318.157198 73.014786,316.164981 Z" fill="url(#linearGradient-3)"/>
    <path d="M43.7291829,306.10428 C41.3385214,318.157198 39.6451362,330.210117 38.7486381,342.163424 C38.7486381,342.561868 38.6490272,342.960311 38.6490272,343.458366 C32.6723735,333.89572 16.7346304,324.631907 16.7346304,324.631907 C28.1898833,341.167315 36.8560311,357.603113 38.1509728,373.740078 C32.0747082,375.035019 23.707393,373.142412 13.9455253,369.656031 C24.0062257,378.919844 31.5766537,381.509728 34.5649805,382.207004 C25.3011673,382.804669 15.6389105,389.179767 5.8770428,396.451362 C20.1214008,390.67393 31.5766537,388.382879 39.844358,390.175875 C26.7953307,427.131518 13.7463035,467.971984 0.59766537,511.203113 C4.58210117,510.007782 6.97276265,507.318288 8.36731518,503.632685 C10.6583658,495.763424 26.1976654,444.364202 50.4031128,376.728405 C51.1003891,374.835798 51.7976654,372.84358 52.4949416,370.950973 C52.6941634,370.452918 52.8933852,369.855253 53.092607,369.357198 C55.6824903,362.284825 58.2723735,355.01323 61.0614786,347.642023 C61.659144,345.948638 62.3564202,344.255253 62.9540856,342.561868 C62.9540856,342.561868 62.9540856,342.462257 62.9540856,342.462257 L43.9284047,304.809339 C43.9284047,305.307393 43.8287938,305.705837 43.7291829,306.10428 Z" fill="url(#linearGradient-4)"/>
    <path d="M197.329183,68.5322957 C193.045914,75.1066148 188.364202,82.5774319 183.284047,91.044358 C182.985214,91.4428016 182.785992,91.940856 182.48716,92.3392996 C178.10428,99.7105058 173.522179,107.679377 168.641245,116.544747 C164.457588,124.115175 160.074708,132.283268 155.492607,141.148638 C151.508171,148.818677 147.424125,156.88716 143.240467,165.553307 L144.136965,165.951751 L190.456031,160.971206 L191.551751,160.174319 C205.596887,153.699611 211.872374,147.822568 217.948638,139.355642 C219.542412,137.064591 221.235798,134.574319 222.829572,132.084047 C227.810117,124.314397 232.691051,115.847471 236.974319,107.380545 C241.157977,99.2124514 244.84358,91.044358 247.732296,83.7727626 C249.525292,79.0910506 251.019455,74.8077821 252.015564,71.0225681 C252.912062,67.6357977 253.609339,64.448249 254.107393,61.4599222 C235.380545,64.7470817 212.370428,67.8350195 197.329183,68.5322957 Z" fill="url(#linearGradient-5)"/>
    <path d="M141.447471,169.438132 C139.853696,172.824903 138.160311,176.311284 136.466926,179.797665 C134.67393,183.582879 132.781323,187.567315 130.988327,191.551751 C130.091829,193.543969 129.09572,195.635798 128.199222,197.628016 C125.310506,203.803891 122.521401,210.178988 119.533074,216.753307 C115.947082,224.82179 112.261479,233.288716 108.575875,241.954864 C104.989883,250.322179 101.403891,258.888716 97.8178988,267.853696 C94.3315175,276.320623 90.8451362,285.086381 87.3587549,294.051362 C84.1712062,302.119844 80.9836576,310.287938 77.7961089,318.854475 C77.5968872,319.252918 77.4972763,319.651362 77.2980545,320.049805 C74.1105058,328.516732 71.0015321,337.13001 67.7143726,345.995379 C67.6147617,346.194601 67.4368555,346.713047 67.3372446,346.912269 L68.025231,347.064993 L81.8801556,345.574599 L82.6623298,345.251362 C82.3634971,345.151751 82.1789883,344.753307 81.8801556,344.653696 C100.20856,342.362646 124.61323,328.616342 140.451362,311.68249 C147.722957,303.91284 154.297276,294.649027 160.473152,283.891051 C165.055253,275.822568 169.238911,266.957198 173.322957,257.09572 C176.908949,248.529183 180.29572,239.165759 183.582879,229.105058 C179.399222,231.296498 174.518288,232.989883 169.238911,234.085603 C168.342412,234.284825 167.346304,234.484047 166.350195,234.683268 C165.354086,234.88249 164.357977,234.982101 163.461479,235.181323 C180.594553,228.607004 191.352529,215.856809 199.22179,200.31751 C194.7393,203.405447 187.368093,207.389883 178.602335,209.382101 C177.407004,209.680934 176.211673,209.880156 174.916732,210.079377 C174.617899,210.079377 174.319066,210.178988 174.020233,210.178988 C179.996887,207.688716 184.977432,204.899611 189.360311,201.612451 C190.256809,200.915175 191.153307,200.217899 192.049805,199.421012 C193.344747,198.225681 194.639689,197.03035 195.835019,195.835019 C196.631907,195.038132 197.329183,194.241245 198.12607,193.344747 C199.819455,191.352529 201.41323,189.161089 202.907393,186.770428 C203.405447,186.073152 203.803891,185.276265 204.301946,184.578988 C204.899611,183.483268 205.397665,182.387549 205.89572,181.291829 C208.286381,176.510506 210.178988,172.227237 211.673152,168.442023 C212.470039,166.549416 213.067704,164.856031 213.66537,163.162646 C213.864591,162.564981 214.063813,161.867704 214.362646,161.270039 C214.960311,159.477043 215.458366,157.883268 215.856809,156.389105 C216.454475,154.297276 216.753307,152.603891 216.952529,151.40856 C216.354864,151.906615 215.757198,152.305058 214.960311,152.803113 C209.780545,155.891051 200.915175,158.680156 193.743191,159.975097 L207.887938,158.381323 L193.743191,159.975097 C192.747082,160.174319 192.049805,160.27393 191.252918,160.473152 C191.319326,160.406744 175.343888,162.095858 143.326605,165.540491 C143.127383,165.739713 141.945525,168.242802 141.447471,169.438132 Z" fill="url(#linearGradient-6)"/>
    <path d="M65.8428016,350.63035 C63.3525292,357.503502 60.7626459,364.575875 58.2723735,371.74786 C58.2723735,371.847471 58.1727626,371.947082 58.1727626,372.046693 C57.7743191,373.042802 57.4754864,374.038911 57.0770428,375.13463 C55.3836576,380.015564 53.8894942,384.298833 50.5027237,394.259922 C56.0809339,396.849805 60.5634241,403.523735 64.8466926,411.193774 C64.448249,403.324514 61.1610895,395.853696 54.8856031,390.175875 C82.477821,391.371206 106.284825,384.398444 118.536965,364.277043 C119.632685,362.484047 120.628794,360.59144 121.525292,358.599222 C115.947082,365.671595 108.974319,368.659922 96.0249027,367.962646 C96.0249027,367.962646 95.9252918,367.962646 95.9252918,367.962646 C95.9252918,367.962646 96.0249027,367.962646 96.0249027,367.962646 C115.249805,359.396109 124.812451,351.128405 133.378988,337.481712 C135.371206,334.194553 137.363424,330.708171 139.355642,326.823346 C122.521401,344.056031 103.097276,348.936965 82.6770428,345.251362 L67.336965,346.944747 C66.8389105,348.040467 66.340856,349.335409 65.8428016,350.63035 Z" fill="url(#linearGradient-7)"/>
  </g>
</svg>

<svg width="256" height="512" xmlns="http://www.w3.org/2000/svg" preserveAspectRatio="xMidYMid"><defs><linearGradient x1="16.363%" y1="63.905%" x2="159.99%" y2="20.213%" id="a"><stop stop-color="#F69923" offset="0%"/><stop stop-color="#F79A23" offset="31.23%"/><stop stop-color="#E97826" offset="83.83%"/></linearGradient><linearGradient x1="-217.651%" y1="394.672%" x2="74.743%" y2="13.846%" id="b"><stop stop-color="#9E2064" offset="32.33%"/><stop stop-color="#C92037" offset="63.02%"/><stop stop-color="#CD2335" offset="75.14%"/><stop stop-color="#E97826" offset="100%"/></linearGradient><linearGradient x1="-80.044%" y1="170.418%" x2="146.24%" y2="-44.299%" id="c"><stop stop-color="#9E2064" offset="32.33%"/><stop stop-color="#C92037" offset="63.02%"/><stop stop-color="#CD2335" offset="75.14%"/><stop stop-color="#E97826" offset="100%"/></linearGradient><linearGradient x1="-18.316%" y1="77.36%" x2="165.002%" y2="-41.416%" id="d"><stop stop-color="#282662" offset="0%"/><stop stop-color="#662E8D" offset="9.548%"/><stop stop-color="#9F2064" offset="78.82%"/><stop stop-color="#CD2032" offset="94.87%"/></linearGradient><linearGradient x1="-129.783%" y1="463.715%" x2="66.456%" y2="17.19%" id="e"><stop stop-color="#9E2064" offset="32.33%"/><stop stop-color="#C92037" offset="63.02%"/><stop stop-color="#CD2335" offset="75.14%"/><stop stop-color="#E97826" offset="100%"/></linearGradient><linearGradient x1="-34.88%" y1="187.706%" x2="110.599%" y2="-51.1%" id="f"><stop stop-color="#9E2064" offset="32.33%"/><stop stop-color="#C92037" offset="63.02%"/><stop stop-color="#CD2335" offset="75.14%"/><stop stop-color="#E97826" offset="100%"/></linearGradient><linearGradient x1="-20.619%" y1="192.564%" x2="125.26%" y2="-136.906%" id="g"><stop stop-color="#282662" offset="0%"/><stop stop-color="#662E8D" offset="9.548%"/><stop stop-color="#9F2064" offset="78.82%"/><stop stop-color="#CD2032" offset="94.87%"/></linearGradient></defs><path d="M218.048 2.889c-7.969 4.681-21.316 18.129-37.254 37.553v1.195l13.945 25.8.698.498c10.26-14.643 20.619-27.891 31.178-39.147.797-.897 1.195-1.295 1.195-1.295-.398.398-.797.896-1.195 1.295-3.387 3.785-13.747 15.738-29.286 39.645l1.793.398s36.358-3.586 53.89-6.574l.996-.897c5.578-31.278-5.479-45.621-5.479-45.621s-13.945-22.513-30.48-12.85Z" fill="url(#a)"/><path d="M152.405 139.156c4.482-8.267 8.965-16.435 13.447-24.305 4.682-8.168 9.463-16.137 14.344-23.807.299-.398.598-.896.797-1.394a547.709 547.709 0 0 1 14.444-21.715l-14.643-27.593c-1.096 1.295-2.192 2.69-3.287 4.084-4.184 5.28-8.567 10.858-13.05 16.835a769.377 769.377 0 0 0-15.539 21.516 828.534 828.534 0 0 0-14.742 21.814c-4.184 6.475-8.467 13.05-12.65 19.923-.2.298-.3.498-.499.797v1.095l18.229 36.159.797.299c4.084-7.97 8.168-15.938 12.352-23.708Z" fill="url(#b)"/><path d="M73.015 316.165c3.287-8.567 6.773-17.233 10.26-25.998 3.386-8.368 6.773-16.835 10.36-25.302 3.486-8.467 7.171-16.933 10.857-25.5 3.785-8.666 7.57-17.332 11.455-25.899 3.885-8.467 7.77-16.934 11.754-25.301a376.829 376.829 0 0 1 4.383-9.065c2.49-5.18 5.08-10.36 7.57-15.44.1-.298.3-.497.399-.796l-19.026-37.553-.896 1.494c-4.383 7.271-8.866 14.642-13.149 22.213a872.556 872.556 0 0 0-12.85 23.309c-3.586 6.674-6.972 13.348-10.36 20.121-.697 1.395-1.294 2.69-1.991 4.084a514.412 514.412 0 0 0-11.256 24.704c-3.786 8.965-7.172 17.531-10.16 25.7-1.993 5.378-3.686 10.459-5.38 15.44a609.063 609.063 0 0 0-3.785 12.65 359.905 359.905 0 0 0-7.272 29.783l.3 1.196 18.228 36.258.598.299c2.49-6.774 5.08-13.547 7.77-20.52.697-1.992 1.494-3.885 2.19-5.877Z" fill="url(#c)"/><path d="M43.73 306.104c-2.391 12.053-4.085 24.106-4.981 36.06 0 .398-.1.796-.1 1.294-5.977-9.562-21.914-18.826-21.914-18.826 11.455 16.535 20.121 32.971 21.416 49.108-6.076 1.295-14.444-.598-24.205-4.084 10.06 9.264 17.63 11.854 20.619 12.551-9.264.598-18.926 6.973-28.688 14.244 14.244-5.777 25.7-8.068 33.967-6.275C26.795 427.132 13.746 467.972.598 511.203c3.984-1.195 6.375-3.885 7.77-7.57 2.29-7.87 17.83-59.269 42.035-126.905.697-1.892 1.395-3.884 2.092-5.777.2-.498.398-1.096.598-1.594 2.59-7.072 5.18-14.344 7.968-21.715.598-1.693 1.295-3.387 1.893-5.08v-.1L43.928 304.81c0 .498-.1.897-.199 1.295Z" fill="url(#d)"/><path d="M197.33 68.532c-4.284 6.575-8.966 14.045-14.046 22.512-.299.399-.498.897-.797 1.295a835.931 835.931 0 0 0-13.846 24.206 1000.618 1000.618 0 0 0-13.148 24.604 923.83 923.83 0 0 0-12.253 24.404l.897.399 46.319-4.98 1.096-.798c14.045-6.474 20.32-12.351 26.397-20.818a230.24 230.24 0 0 0 4.88-7.272c4.981-7.77 9.862-16.237 14.145-24.703 4.184-8.169 7.87-16.337 10.758-23.608 1.793-4.682 3.287-8.965 4.284-12.75.896-3.387 1.593-6.575 2.091-9.563-18.726 3.287-41.737 6.375-56.778 7.072Z" fill="url(#e)"/><path d="M141.447 169.438c-1.593 3.387-3.287 6.873-4.98 10.36-1.793 3.785-3.686 7.77-5.479 11.754-.896 1.992-1.892 4.084-2.789 6.076-2.888 6.176-5.678 12.551-8.666 19.125a1712.552 1712.552 0 0 0-10.957 25.202c-3.586 8.367-7.172 16.934-10.758 25.899a1436.099 1436.099 0 0 0-10.46 26.197c-3.187 8.069-6.374 16.237-9.562 24.803-.2.399-.299.797-.498 1.196-3.187 8.467-6.296 17.08-9.584 25.945-.1.2-.277.718-.377.917l.688.153 13.855-1.49.782-.324c-.299-.1-.483-.498-.782-.597 18.329-2.291 42.733-16.038 58.571-32.972 7.272-7.77 13.846-17.033 20.022-27.79 4.582-8.07 8.766-16.935 12.85-26.796 3.586-8.567 6.973-17.93 10.26-27.99-4.184 2.19-9.065 3.884-14.344 4.98-.897.199-1.893.398-2.889.597-.996.2-1.992.3-2.889.498 17.134-6.574 27.892-19.324 35.76-34.863-4.482 3.087-11.853 7.072-20.619 9.064-1.195.299-2.39.498-3.685.697-.3 0-.598.1-.897.1 5.977-2.49 10.957-5.28 15.34-8.567.897-.697 1.793-1.394 2.69-2.191 1.295-1.195 2.59-2.39 3.785-3.586.797-.797 1.494-1.594 2.291-2.49a55.754 55.754 0 0 0 4.781-6.575c.498-.697.897-1.494 1.395-2.191.598-1.096 1.096-2.191 1.594-3.287 2.39-4.781 4.283-9.065 5.777-12.85.797-1.893 1.395-3.586 1.992-5.28.2-.597.399-1.294.698-1.892.597-1.793 1.095-3.387 1.494-4.88a43.27 43.27 0 0 0 1.096-4.981c-.598.498-1.196.896-1.993 1.394-5.18 3.088-14.045 5.877-21.217 7.172l14.145-1.594-14.145 1.594c-.996.2-1.693.299-2.49.498.066-.066-15.91 1.623-47.926 5.067-.2.2-1.381 2.703-1.88 3.898Z" fill="url(#f)"/><path d="M65.843 350.63c-2.49 6.874-5.08 13.946-7.57 21.118 0 .1-.1.2-.1.299-.399.996-.698 1.992-1.096 3.088-1.693 4.88-3.188 9.164-6.574 19.125 5.578 2.59 10.06 9.264 14.344 16.934-.399-7.87-3.686-15.34-9.961-21.018 27.592 1.195 51.399-5.778 63.651-25.899a51.043 51.043 0 0 0 2.988-5.678c-5.578 7.073-12.55 10.06-25.5 9.364h-.1.1c19.225-8.567 28.787-16.835 37.354-30.481a170.153 170.153 0 0 0 5.977-10.659c-16.835 17.233-36.259 22.114-56.679 18.428l-15.34 1.694c-.498 1.095-.996 2.39-1.494 3.685Z" fill="url(#g)"/></svg>
